X:21078 
T:HENNESSY'S HORNPIPE 
B:DMI.0813
Z:Nordberg/Black
R:hornpipe
%Q:1/4=150
M:C|
L:1/8
K:G
D2|GABc dBGB|g2fg edBA|GABc dedc|BGAF GFED|
GABc dBGB|g2fg edBA|dedc BGAF|G2GF G2:|
Bc|d^cde gBB2|g2ag fdef|gfed eBB2|e2d^c d2ef|
gedc BAGB|ABAG FGAB|dedc BGAF|G2GF G2:|

%%%

